static/assets/uswds/img/material-icons/family_restroom.svg

<svg xmlns="http://www.w3.org/2000/svg" width="24" height="24" viewBox="0 0 24 24"><path d="M16 4c0-1.11.89-2 2-2s2 .89 2 2-.89 2-2 2-2-.89-2-2zm4 18v-6h2.5l-2.54-7.63A2.01 2.01 0 0 0 18.06 7h-.12a2 2 0 0 0-1.9 1.37l-.86 2.58c1.08.6 1.82 1.73 1.82 3.05v8h3zm-7.5-10.5c.83 0 1.5-.67 1.5-1.5s-.67-1.5-1.5-1.5S11 9.17 11 10s.67 1.5 1.5 1.5zM5.5 6c1.11 0 2-.89 2-2s-.89-2-2-2-2 .89-2 2 .89 2 2 2zm2 16v-7H9V9c0-1.1-.9-2-2-2H4c-1.1 0-2 .9-2 2v6h1.5v7h4zm6.5 0v-4h1v-4c0-.82-.68-1.5-1.5-1.5h-2c-.82 0-1.5.68-1.5 1.5v4h1v4h3z"/></svg>

<svg xmlns="http://www.w3.org/2000/svg" enable-background="new 0 0 24 24" height="24" viewBox="0 0 24 24" width="24"><g><rect fill="none" height="24" width="24"/><path d="M16,4c0-1.11,0.89-2,2-2s2,0.89,2,2s-0.89,2-2,2S16,5.11,16,4z M20,22v-6h2.5l-2.54-7.63C19.68,7.55,18.92,7,18.06,7h-0.12 c-0.86,0-1.63,0.55-1.9,1.37l-0.86,2.58C16.26,11.55,17,12.68,17,14v8H20z M12.5,11.5c0.83,0,1.5-0.67,1.5-1.5s-0.67-1.5-1.5-1.5 S11,9.17,11,10S11.67,11.5,12.5,11.5z M5.5,6c1.11,0,2-0.89,2-2s-0.89-2-2-2s-2,0.89-2,2S4.39,6,5.5,6z M7.5,22v-7H9V9 c0-1.1-0.9-2-2-2H4C2.9,7,2,7.9,2,9v6h1.5v7H7.5z M14,22v-4h1v-4c0-0.82-0.68-1.5-1.5-1.5h-2c-0.82,0-1.5,0.68-1.5,1.5v4h1v4H14z"/></g></svg>
